!!!!SEGMENT: pl-kk--kk-i-111--001-002_anonim--deo-gratias-solenne-2dum.krn
!!!cenid: 18xx:2553
!!!COM: Anonim
!!!COM-rismid: pe30004985
!!!CDT:
!!!CNT:
!!!GTL: Deo gratias
!!!OTL: Solenne 2dum
!!!OMV: 002
!!!PDT: 1824
!!!AGN: Sacred
!!!SMS-siglum: PL-Kk
!!!SMS-shelfmark: Kk.I.111
!!!SMS-shelfwork: 001-002 G
!!!SMS-variant:
!!!SMS-altvar:
!!!NIFC-rismid: 1001157667
!!!URL-scan: http://repozytorium.nifc.pl/skany/pl-kk-nut--i-111
!!!ONB-nifc: UWAGA: A, T1, T2. Podział na poszególne Deo gratias. A: skan 0001 (m.in)
**kern	**text	**kern	**text	**kern	**text
*part3	*part3	*part2	*part2	*part1	*part1
*staff3	*staff3	*staff2	*staff2	*staff1	*staff1
*Itenor	*	*Itenor	*	*Ialto	*
*I"Tenore Vagante.	*	*I"Tenore Chorale.	*	*I"Alto.	*
*I'T 2	*	*I'T 1	*	*I'A	*
*clefC4	*	*clefC4	*	*clefC3	*
*k[]	*	*k[]	*	*k[]	*
*G:	*	*G:	*	*G:	*
*M2/1	*	*M2/1	*	*M2/1	*
*met(C|)	*	*met(C|)	*	*met(C|)	*
*all\right	*	*	*	*all\right	*
=1-	=1-	=1-	=1-	=1-	=1-
*	*	*	*	*2\right	*
!LO:TX:t=P:problem:kreska pseudotaktowa	!	!LO:TX:t=P:problem:kreska pseudotaktowa	!	!	!
1Bn	De-	1G	De-	2g\	De-
!	!	!	!	!LO:TX:t=P:problem:kreska pseudotaktowa	!
.	.	.	.	2d/	-o
*2\right	*	*	*	*	*
!	!	!LO:TX:t=P:problem:kreska pseudotaktowa	!	!	!
2c\	.	1A	.	2e\	.
!LO:TX:t=P:problem:kreska pseudotaktowa	!	!	!	!LO:TX:t=P:problem:kreska pseudotaktowa	!
2d\	.	.	.	2f#X\	.
=2-	=2-	=2-	=2-	=2-	=2-
!LO:TX:t=P:problem:kreska pseudotaktowa	!	!LO:TX:t=P:problem:kreska pseudotaktowa	!	!	!
1d	-o	1Bn	-o	2d\	.
.	.	.	.	1g\	.
!	!	!LO:TX:t=P:problem:kreska pseudotaktowa	!	!	!
2e\	gra-	1A	.	.	.
!LO:TX:t=P:problem:kreska pseudotaktowa	!	!	!	!LO:TX:t=P:problem:kreska pseudotaktowa	!
2d\	.	.	.	2fn\	.
=3-	=3-	=3-	=3-	=3-	=3-
!	!	!LO:TX:t=P:problem:kreska pseudotaktowa	!	!	!
2c\	.	1c	gra-	2e\	.
!LO:TX:t=P:problem:kreska pseudotaktowa	!	!	!	!LO:TX:t=P:problem:kreska pseudotaktowa	!
2A\	.	.	.	2d/	.
!	!	!LO:TX:t=P:problem:kreska pseudotaktowa	!	!	!
2B\	.	1B	.	2d\	gra-
!LO:TX:t=P:problem:kreska pseudotaktowa	!	!	!	!	!
2d\	.	.	.	1g\	.
=4-	=4-	=4-	=4-	=4-	=4-
!	!	!LO:TX:t=P:problem:kreska pseudotaktowa	!	!	!
2e\	.	1A	.	.	.
!LO:TX:t=P:problem:kreska pseudotaktowa	!	!	!	!LO:TX:t=P:problem:kreska pseudotaktowa	!
2d\	-ti-	.	.	2f#X\	-ti-
!	!	!LO:TX:t=P:problem:kreska pseudotaktowa	!	!	!
2d\	-as	1G	.	2g\	-as
!LO:TX:t=P:problem:kreska pseudotaktowa	!	!	!	!	!
2r	.	.	.	4d\	De-
!	!	!	!	!LO:TX:t=P:problem:kreska pseudotaktowa	!
.	.	.	.	4e\	.
=5-	=5-	=5-	=5-	=5-	=5-
!	!	!LO:TX:t=P:problem:kreska pseudotaktowa	!	!	!
2A\	De-	0A	.	2fny\	.
!LO:TX:t=P:problem:kreska pseudotaktowa	!	!	!	!LO:TX:t=P:problem:kreska pseudotaktowa	!
2d\	.	.	.	2f\	-o
!LO:TX:t=P:problem:kreska pseudotaktowa	!	!	!	!	!
1c	-o	.	.	2d\	gra-
.	.	.	.	1f\	.
=6-	=6-	=6-	=6-	=6-	=6-
!	!	!LO:TX:t=P:problem:kreska pseudotaktowa	!	!	!
2d\	gra-	1G	.	.	.
!	!	!	!	!LO:TX:t=P:problem:kreska pseudotaktowa	!
1c\	.	.	.	2e\	-ti-
!	!	!LO:TX:t=P:problem:kreska pseudotaktowa	!	!	!
.	.	1F	.	2f\	-as
!	!	!	!	!LO:TX:t=P:problem:kreska pseudotaktowa	!
1B-X\	.	.	.	2f\	De-
=7-	=7-	=7-	=7-	=7-	=7-
!	!	!LO:TX:t=P:problem:kreska pseudotaktowa	!	!	!
.	.	1E	.	2g\	-o
!	!	!	!	!LO:TX:t=P:problem:kreska pseudotaktowa	!
1A\	.	.	.	2e\	.
!	!	!LO:TX:t=P:problem:kreska pseudotaktowa	!	!	!
.	.	1D	.	2f\	gra-
!LO:TX:t=P:problem:kreska pseudotaktowa	!	!	!	!LO:TX:t=P:problem:kreska pseudotaktowa	!
2G/	.	.	.	2d\	.
=8-	=8-	=8-	=8-	=8-	=8-
!	!	!LO:TX:t=P:problem:kreska pseudotaktowa	!	!	!
2A\	.	1D	.	2d\	.
!LO:TX:t=P:problem:kreska pseudotaktowa	!	!	!	!LO:TX:t=P:problem:kreska pseudotaktowa	!
2Bny\	.	.	.	2g\	.
!	!	!LO:TX:t=P:problem:kreska pseudotaktowa	!	!	!
2c\	.	1A	.	2e\	.
!LO:TX:t=P:problem:kreska pseudotaktowa	!	!	!	!LO:TX:t=P:problem:kreska pseudotaktowa	!
2A\	.	.	.	2f\	.
=9-	=9-	=9-	=9-	=9-	=9-
!	!	!LO:TX:t=P:problem:kreska pseudotaktowa	!	!LO:LB:g=original	!
2c\	.	1G	.	2d\	.
!LO:TX:t=P:problem:kreska pseudotaktowa	!	!	!	!LO:TX:t=P:problem:kreska pseudotaktowa	!
2c\	-ti-	.	.	2e\	.
!	!	!LO:TX:t=P:problem:kreska pseudotaktowa	!	!	!
2A\	-as	1A	.	2f\	.
!LO:TX:t=P:problem:kreska pseudotaktowa	!	!	!	!LO:TX:t=P:problem:kreska pseudotaktowa	!
2d\	De-	.	.	2a\	-ti-
=10-	=10-	=10-	=10-	=10-	=10-
!LO:LB:g=original	!	!LO:TX:t=P:problem:kreska pseudotaktowa	!	!LO:TX:t=P:problem:kreska pseudotaktowa	!
2Bn\	-o	1B	.	1g	-as
1B\	gra-	.	.	.	.
!	!	!LO:TX:t=P:problem:kreska pseudotaktowa	!	!	!
.	.	1c	.	2g\	De-
1A\	.	.	.	1fnX\	.
=11-	=11-	=11-	=11-	=11-	=11-
!	!	!LO:TX:t=P:problem:kreska pseudotaktowa	!	!	!
.	.	1B	.	.	.
1G/	.	.	.	1e\	-o
!	!	!LO:TX:t=P:problem:kreska pseudotaktowa	!	!	!
.	.	1A	.	.	.
1Fn/	.	.	.	1d\	.
=12-	=12-	=12-	=12-	=12-	=12-
!	!	!LO:TX:t=P:problem:kreska pseudotaktowa	!	!	!
.	.	1G	.	.	.
1E/	.	.	.	1c\	.
!	!	!LO:TX:t=P:problem:kreska pseudotaktowa	!	!	!
.	.	1F	.	.	.
!LO:TX:t=P:problem:kreska pseudotaktowa	!	!	!	!LO:TX:t=P:problem:kreska pseudotaktowa	!
2D/	.	.	.	2B/	.
=13-	=13-	=13-	=13-	=13-	=13-
!	!	!LO:TX:t=P:problem:kreska pseudotaktowa	!	!	!
2G/	.	1G	.	2d\	gra-
!LO:TX:t=P:problem:kreska pseudotaktowa	!	!	!	!	!
2d\	.	.	.	1g\	.
!	!	!LO:TX:t=P:problem:kreska pseudotaktowa	!	!	!
2e\	.	1A	.	.	.
!LO:TX:t=P:problem:kreska pseudotaktowa	!	!	!	!LO:TX:t=P:problem:kreska pseudotaktowa	!
2d\	.	.	.	2f#X\	-ti-
=14-	=14-	=14-	=14-	=14-	=14-
2d\	.	2.G/	.	2g\	-as
!	!	!	!	!LO:TX:t=P:problem:kreska pseudotaktowa	!
1c\	.	.	.	2e\	De-
!	!	!LO:TX:t=P:problem:kreska pseudotaktowa	!	!	!
.	.	4G/	-ti-	.	.
.	.	[>0E	-as.	2a\	-o
!LO:TX:t=P:problem:kreska pseudotaktowa	!	!	!	!LO:TX:t=P:problem:kreska pseudotaktowa	!
2B\	.	.	.	2e\	.
=15-	=15-	=15-	=15-	=15-	=15-
!LO:TX:t=P:problem:kreska pseudotaktowa	!	!	!	!LO:TX:t=P:problem:kreska pseudotaktowa	!
1c	-ti-	.	.	1a	gra-
!LO:N:vis=0	!	!LO:N:vis=0	!	!LO:N:vis=0	!
1B;>	-as.	1E;]	.	1g#X;<	-tias
=-	=-	=-	=-	=-	=-
*-	*-	*-	*-	*-	*-
!!!system-decoration: [(s1,s2,s3)]
!!!RDF**kern: < = below
!!!RDF**kern: > = above
!!!ENC: Marta Chmielewska
!!!END: 2021-08-04
!!!ENC: Andrzej Gręziak
!!!END: 2021-07-10
